!!!COM: Hugo Wolf
!!!CNT: Deutscher
!!!TXO: Deutsche 
!!!OTL: Der Freund
!!!ODT: 1888/09/26
!!!LYR: Joseph von Eichendorff
!!!ENC: Brian Bice
!!!YOR: 45 Songs on Poems of Goethe and Eichendorff, Dover Publications, 1995
!!NB: Vocal melody and text only encoded.
**kern	**silbe
*clefG2	*
*k[f#c#g#d#]	*
*M4/4	*
=2	=2
{4b	{Wer
8.b	auf
16b	den
4cn	Wo-
4cn	-gen
=3	=3
2b	schlie-
4g#	-fe,
4g#	ein
=4	=4
4.g#	sanft
8g#	ge-
(6g#	-wieg-
6f#)	|
6e	-tes
=5	=5
2.g#}	Kind,}
4r	.
=6	=6
{4b	{kennt
8b	nicht
8b	des
4a#	Le-
4g#	-bens
=7	=7
2f#	Tie-
4e#	-fe,
4d#	vor
=8	=8
4c#	su2-
4a#	-ssem
4.a#	Tra2u-
8g#	-men
=9	=9
2.f#}	blind.}
4r	.
=11	=11
{4ddn	{Doch
8.ddn	wen
16ddn	die
4ddn	Stu2r-
4ddn	-me
=12	=12
4cc#	fas-
4ff#}	-sen}
4r	.
{4cc#	{zu
=13	=13
4.ddn	wil-
8ddn	-dem
4ddn	Tanz
4ddn	und
=14	=14
2ee}	Fest,}
4r	.
{4ee	{wen
=15	=15
4.ffn	hoch
8ffn	auf
4ee	dunk-
4dd#	len
=16	=16
4ee	Stra-
4e}	-ssen}
4r	.
{4ee	{die
=17	=17
4.ffn	fal-
8ffn	-sche
4ffn	Welt
4ffn	ver-
=18	=18
[2ffn	-la2sst:
8ffn]}	|}
8r	.
{[4ffn	{Der
=19	=19
4ffn]	|
8.ee-	lernt
16ddn	sich
(8.ccn	wak-
16ee-)	|
(8.ddn	-ker
16ccn)	|
=20	=20
4b-	ru2h-
4fn}	-ren,}
4r	.
8r	.
{8fn	{durch
=21	=21
([4f#	Nacht
12f#]	|
12g#)	|
12a	und
([4g#	Klip-
12g#]	|
12a)	|
12bn	-pen
=22	=22
([4a#	hin
12a#]	|
12b)	|
12cc#	lernt
[2ddn	der
=23	=23
4ddn]}	|}
{4ddn	{das
4ddn	Steu-
4ddn	-er
=24	=24
4cc#	fu2h-
4b	-ren
4r	.
4b	mit
=25	=25
4.b	sich-
8b	-rem,
4.b	ern-
8cc#	-stem
=26	=26
2dd#}	Sinn}
2r	.
=27	=27
{4b	{Der
8.b	ist
16b	von
4b	ech-
4b	-tem
=28	=28
4b	Ker-
4c#	-ne,
4r	.
4c#	er-
=29	=29
4.cc#	-probt
8cc#	zu
4cc#	Lust
4cc#	und
=30	=30
2d#}	Pein,}
2r	.
=31	=31
{4dd#	{der
8.dd#	glaubt
16dd#	an
4dd#	Gott
4dd#	und
=32	=32
2ee	Ster-
2e	-ne,
=33	=33
4b	der
8a	soll
8g#	mein
4g#	Schiff-
4f#	-mann
=34	=34
4e}	sein!}
4r	.
2r	.
*-	*-
